X: 72
T: No_9_Old_War_Song.krn
N: Derived from No_9_Old_War_Song.krn
%%abc-version 2.0
%%abcx-abcm2ps-target-version 5.9.1 (29 Sep 2008)
%%abc-creator hum2abc beta
%%abcx-conversion-date 2019/03/15 08:27:55
%%humdrum-veritas 653909578
%%humdrum-veritas-data 136315960
%%linebreak <none>
%%barnumbers 0
L: 1/8
M: 3/4
K: F clef=treble
[K:clef=treble][M:3/4]c/c3/ d/c3/ c/A3/ | 
A/AA/ A/G3/ G/F3/ | 
G/G3/ G3/G/ G z | 
A/A3/ A/G3/ G/F3/ | 
F/G3/ G3/G/ (3AGF | 
F3zC2 | 
[M:2/4]A/A3/ A/G3/ | 
G/FC/F2 | 
[M:3/4]CC-C2z2 | 
[M:2/4]CC- CC | 
[M:3/4]C2C3/C/ C z | 
FG G3/G/ G z | 
[M:2/4]A2A/G3/ | 
G/F3/ F/G3/ | 
[M:3/4]G2G3/G/ (3AGF | 
F2F zC2 | 
[M:2/4]AA A/G3/ | 
G/FC/F2 | 
[M:3/4]CC-C2z2 | 
[M:2/4]CC- CC | 
C2C3/C/ | 
C2z2 |]  
